Papirus-Dark/24x24/actions/distribute-horizontal-node.svg

<?xml version="1.0" encoding="UTF-8" standalone="no"?>
<svg xmlns="http://www.w3.org/2000/svg" width="24" height="24" viewBox="0 0 24 24">
 <defs>
  <style type="text/css" id="current-color-scheme">
   .ColorScheme-Text { color:#d3dae3; }
  </style>
 </defs>
 <path style="fill:currentColor;opacity:1" class="ColorScheme-Text" d="M 3.0039062 0 L 3.0039062 10 L 1.0058594 10 L 1.0058594 11.994141 L 0.50585938 11.994141 L 0.005859375 11.994141 L 0.005859375 12.994141 L 0.50585938 12.994141 L 1.0058594 12.994141 L 1.0058594 15 L 2.546875 15 C 2.325345 16.4595 2.1067444 17.905987 1.8339844 19.179688 C 1.4351544 21.041888 0.8709275 22.516875 0.1796875 23.109375 A 0.49977 0.49988 0 0 0 0 23.505859 A 0.49977 0.49988 0 0 0 0.83007812 23.869141 C 1.8880781 22.962141 2.3994 21.317672 2.8125 19.388672 C 3.1052 18.021672 3.3303937 16.509 3.5585938 15 L 6.0039062 15 L 6.0039062 12.994141 L 9.0039062 12.994141 L 9.0039062 15 L 10.443359 15 C 10.444015 15.004 10.444612 15.007699 10.445312 15.011719 C 10.791723 17.121619 11.244096 19.239369 12.128906 20.917969 C 13.013716 22.596569 14.412044 23.851381 16.464844 23.988281 C 17.279804 24.042281 18.005716 23.740478 18.541016 23.205078 C 19.076246 22.669678 19.447021 21.930634 19.738281 21.052734 C 20.276281 19.432734 20.537047 17.305 20.748047 15 L 23 15 L 23 12.994141 L 23.996094 12.994141 L 23.996094 12.494141 L 23.996094 11.994141 L 23.496094 11.994141 L 23 11.994141 L 23 10 L 21.183594 10 C 21.287334 8.8909 21.402444 7.7940469 21.558594 6.7480469 A 0.49977 0.49988 0 0 0 21 6.1640625 L 21 0 L 20 0 L 20 2.5 L 20 10 L 18.001953 10 L 18.001953 11.994141 L 14.001953 11.994141 L 14.001953 10 L 12.001953 10 L 12.001953 2.5 L 12.001953 0 L 11.001953 0 L 11.001953 2.5 L 11.001953 10 L 10.662109 10 C 10.594109 9.6455 10.526266 9.2920437 10.447266 8.9648438 C 10.242266 8.1154438 9.9940188 7.3667188 9.6367188 6.7617188 C 9.2795187 6.1567188 8.7820469 5.6765188 8.1230469 5.5117188 C 7.2859469 5.3025187 6.5099062 5.4034313 5.8789062 5.7695312 C 5.2479062 6.1357313 4.7731781 6.732625 4.3925781 7.453125 C 4.2480781 7.726625 4.1255062 8.0360031 4.0039062 8.3457031 L 4.0039062 2.5 L 4.0039062 0 L 3.0039062 0 z M 4.0039062 2.5 L 6.0039062 4.03125 L 6.0039062 3 L 9.0039062 3 L 9.0039062 4 L 11.001953 2.5 L 9.0039062 1 L 9.0039062 2 L 6.0039062 2 L 6.0039062 1.03125 L 4.0039062 2.5 z M 12.001953 2.5 L 14.001953 4.03125 L 14.001953 3 L 18.001953 3 L 18.001953 4 L 20 2.5 L 18.001953 1 L 18.001953 2 L 14.001953 2 L 14.001953 1.03125 L 12.001953 2.5 z M 7.4355469 6.40625 C 7.5743469 6.417922 7.7214994 6.4425969 7.8808594 6.4824219 C 8.2214494 6.5674219 8.5040137 6.8067312 8.7773438 7.2695312 C 9.0506638 7.7324313 9.2836125 8.4010187 9.4765625 9.1992188 C 9.5367625 9.4479187 9.5886781 9.7284 9.6425781 10 L 9.0039062 10 L 9.0039062 11.994141 L 6.0039062 11.994141 L 6.0039062 10 L 4.515625 10 C 4.733725 9.1998 4.9805438 8.4820219 5.2773438 7.9199219 C 5.6027438 7.3039219 5.9730594 6.8713656 6.3808594 6.6347656 C 6.6866594 6.4571656 7.0191469 6.37125 7.4355469 6.40625 z M 14.001953 12.994141 L 18.001953 12.994141 L 18.001953 15 L 19.742188 15 C 19.533027 17.2488 19.268986 19.297381 18.791016 20.738281 C 18.528376 21.529981 18.200984 22.130947 17.833984 22.498047 C 17.466984 22.865247 17.08758 23.027234 16.53125 22.990234 C 14.83575 22.877234 13.798019 21.944925 13.011719 20.453125 C 12.244719 18.998125 11.796984 17.023 11.458984 15 L 14.001953 15 L 14.001953 12.994141 z"/>
</svg>

<?xml version="1.0" encoding="UTF-8" standalone="no"?>
<svg id="svg6394" xmlns:rdf="http://www.w3.org/1999/02/22-rdf-syntax-ns#" xmlns="http://www.w3.org/2000/svg" xmlns:osb="http://www.openswatchbook.org/uri/2009/osb" height="24" width="24" version="1.1" xmlns:cc="http://creativecommons.org/ns#" viewBox="0 0 24 24" xmlns:dc="http://purl.org/dc/elements/1.1/">
 <metadata id="metadata6399">
  <rdf:RDF>
   <cc:Work rdf:about="">
    <dc:format>image/svg+xml</dc:format>
    <dc:type rdf:resource="http://purl.org/dc/dcmitype/StillImage"/>
    <dc:title/>
   </cc:Work>
  </rdf:RDF>
 </metadata>
 <path id="path19907" opacity="1" fill="#d3dae3" style="fill-rendering:auto;text-decoration-fill:#d3dae3;fill:#d3dae3;isolation:auto;mix-blend-mode:normal;shape-rendering:auto;solid-fill:#d3dae3;block-progression:tb;text-decoration-line:none;text-decoration-style:solid;image-rendering:auto;white-space:normal;text-indent:0;text-transform:none" d="m3.0039 0v10h-1.998v1.9941h-0.5-0.5v1h0.5 0.5v2.0059h1.541c-0.22153 1.4595-0.44013 2.906-0.71289 4.1797-0.39883 1.8622-0.96306 3.3372-1.6543 3.9297a0.49977 0.49988 0 0 0 -0.1797 0.397 0.49977 0.49988 0 0 0 0.83008 0.363c1.058-0.907 1.5693-2.551 1.9824-4.48 0.2927-1.367 0.5179-2.88 0.7461-4.389h2.4453v-2.0059h3v2.0059h1.4395c0.000656 0.004 0.0013 0.0077 0.002 0.01172 0.34641 2.1099 0.79879 4.2276 1.6836 5.9062s2.2831 2.9334 4.3359 3.0703c0.81496 0.054 1.5409-0.2478 2.0762-0.7832 0.53523-0.5354 0.90604-1.2744 1.1973-2.1523 0.538-1.62 0.799-3.748 1.01-6.053h2.252v-2.0059h0.99609v-0.5-0.5h-0.5-0.49609v-1.9941h-1.8164c0.10374-1.1091 0.21885-2.206 0.375-3.252a0.49977 0.49988 0 0 0 -0.559 -0.5839v-6.1641h-1v2.5 7.5h-1.998v1.9941h-4v-1.9941h-2v-7.5-2.5h-1v2.5 7.5h-0.33984c-0.068-0.3545-0.136-0.708-0.215-1.0352-0.205-0.8494-0.453-1.5981-0.8103-2.2031-0.3572-0.605-0.8547-1.0852-1.5137-1.25-0.8371-0.2092-1.6131-0.1083-2.2441 0.2578-0.631 0.3662-1.1057 0.9631-1.4863 1.6836-0.1445 0.2735-0.2671 0.5829-0.3887 0.8926v-5.8457-2.5h-1zm1 2.5 2 1.5312v-1.0312h3v1l1.9981-1.5-1.9981-1.5v1h-3v-0.96875l-2 1.4688zm7.998 0 2 1.5312v-1.0312h4v1l1.998-1.5-1.998-1.5v1h-4v-0.96875l-2 1.4688zm-4.5665 3.9062c0.1388 0.011672 0.28595 0.036347 0.44531 0.076172 0.34059 0.085 0.62315 0.32431 0.89648 0.78711 0.27332 0.4629 0.50627 1.1315 0.69922 1.9297 0.0602 0.2487 0.1122 0.5292 0.1661 0.8008h-0.63867v1.9941h-3v-1.9941h-1.4883c0.2181-0.8002 0.4649-1.518 0.7617-2.0801 0.3254-0.616 0.6958-1.0485 1.1036-1.2851 0.3058-0.1776 0.6382-0.2636 1.0546-0.2286zm6.5664 6.5879h4v2.0059h1.7402c-0.20916 2.2488-0.4732 4.2974-0.95117 5.7383-0.26264 0.7917-0.59003 1.3927-0.95703 1.7598-0.367 0.3672-0.74637 0.52919-1.3027 0.49219-1.6955-0.113-2.7332-1.0453-3.5195-2.5371-0.767-1.455-1.215-3.43-1.553-5.453h2.543v-2.0059z"/>
</svg>
